X: 10873
T: GIPSY'S HORNPIPE
C: Composed by W.B. laybourn
R: hornpipe
B: K\"ohler's Violin Repository, v.1, 1885 p.87 #3
F: http://www.archive.org/details/klersviolinrepos01edin
Z: 2012 John Chambers <jc:trillian.mit.edu>
M: C|
L: 1/8
K: B
ud2 |\
(g>f)e>d (e>d)B>d | e>d (3efg B2B>A | (G>F)G>A (B>A)B>d | e2A2 A2d2 |
(g>f)e>d (e>d)B>d | e>d (3efg B2B>A | (G>F)G>A (B>c)B>A | G2E2E2 :|
|: u(g>f) |\
e2B2 B2(g>f) | e2B2 B2(g>f) | (e>d)e>f (g>f)g>a | b2e2 e2(g>a) |
(b>g)a>f g2g>f | e>d (3efg B2B>A | (G>F)G>A (B>c)B>A | G2E2E2 :|

%%sep 2 1 500

